X:527
T:Bonnie Ann #1
C:Joe Buchanan's Scottish Tome - Page 028.0
I:028 0
R:Reel
Z:Carl Allison
L:1/16
M:2/4
K:A
c>B | "A" {AB}A2a2{b} a>f | "A" e>fe>d c2(B<A) | "G"=G2=g2 {a}g2>e2 | "G" d>ed>c B2A<=G |
"A" {AB}A2a2{b} a>f | "A" e>fe>d c2(e=g) | "G" d>cB>A =G>AB>c | "A" {e}d2=G2 A<A :|
"A" c>d | "A" e>d>cB A>Bc>d | "A" {f}e2A2 {d}c2 | "G" (d>c)B>A =G>AB>d | "A" {e}c=A A<Ac>d |
"A" e>dc>B A>Bc>d | "A" e2>a2 {d}c2=g2 | "G" d>cB>A =G>AB>c | "A" {d}c2A2 A<Ac>d |
"A" e>dc>B A>Bc>d | "A" {f}e2a2 {d}c2 | "G" (d>c)B>A =G>AB>d |"A" {e}d2=g2 B<Bc>d|
"A" e>dc>B A>Bc>d | "A" {f}e2a2 {d}c2(e<=g) | "G" (d>c)B>A =G>AB>d |"A" {e}d2=g2 B<Bc>d|]
c>B | "A" A2a2 f>=ga>f | "A" e>fe>d c>de>c | "G" B>=gf<g a>gf>e |  "A" d>ed>c B>cd>B |
"A" A2a2 f>=ga>f | "A" e>fe>d c>ac<e | "G" d>cB>A =G>AB<d | "A" {d}c2A2 A<A :|
c>d | "A" e>dc>B A>Bc>d | "A" e>dc>A a>ec<A | "G" d>cB>A =G>AB>c | "A" d>cB<=G g>dB<G |
"A" e>dc>B A>Bc>d | "A" e>dc<A a>ec<e | "G" d>cB>A =G>AB<d | "A" {d}c2A2 {B}A2(c>d) |
"A" e>dc>B A>Bc>d | "A" e>Ac<A a>ec<A | "G" d>cB>A =G>AB>c | "A" d>=GB<G =g>dB<G |
"A" e>dc>B A>Bc>d | "A" e>ca>=g f>A(e>c) | "G" d>cB>A =G<fe>d |"A" {d}c2A2 A<A |]
